packages/usa-icon/src/img/material-icons/batch_prediction.svg

<svg xmlns="http://www.w3.org/2000/svg" height="24" viewBox="0 0 24 24" width="24"><path fill="none" d="M0 0h24v24H0z"/><path d="M17 8H7c-1.1 0-2 .9-2 2v10c0 1.1.9 2 2 2h10c1.1 0 2-.9 2-2V10c0-1.1-.9-2-2-2zm-4 12.5h-2V19h2v1.5zm0-2.5h-2c0-1.5-2.5-3-2.5-5 0-1.93 1.57-3.5 3.5-3.5s3.5 1.57 3.5 3.5c0 2-2.5 3.5-2.5 5zm5-11.5H6C6 5.67 6.67 5 7.5 5h9c.83 0 1.5.67 1.5 1.5zm-1-3H7C7 2.67 7.67 2 8.5 2h7c.83 0 1.5.67 1.5 1.5z"/></svg>

<svg xmlns="http://www.w3.org/2000/svg" enable-background="new 0 0 24 24" height="24" viewBox="0 0 24 24" width="24"><g><rect fill="none" height="24" width="24" x="0"/><path d="M17,8H7c-1.1,0-2,0.9-2,2v10c0,1.1,0.9,2,2,2h10c1.1,0,2-0.9,2-2V10C19,8.9,18.1,8,17,8z M13,20.5h-2V19h2V20.5z M13,18h-2 c0-1.5-2.5-3-2.5-5c0-1.93,1.57-3.5,3.5-3.5c1.93,0,3.5,1.57,3.5,3.5C15.5,15,13,16.5,13,18z M18,6.5H6v0C6,5.67,6.67,5,7.5,5h9 C17.33,5,18,5.67,18,6.5L18,6.5z M17,3.5H7v0C7,2.67,7.67,2,8.5,2h7C16.33,2,17,2.67,17,3.5L17,3.5z"/></g></svg>
